X:1
T:Lost Jimmy Whelan
M:3/4
L:1/4
K:C
 F D3/2 E/2| F G3/2 A/2|G/2-F/2 D3/2 E/2| F G2| A d3/2 e/2| d c3/2 A/2|\
 G F A| c2 G| A d3/2 e/2| d c A| G D3/2 E/2| F G A/2B/2| c A B|A/2-G/2 F3/2 A/2|\
G/2-F/2 D C| D3|
